src/images/user_icon.svg

<svg width="25" height="25" viewBox="0 0 25 25" fill="none" xmlns="http://www.w3.org/2000/svg">
<g clip-path="url(#clip0_20_714)">
<path d="M12.3219 12.0426C13.9763 12.0426 15.4089 11.4492 16.5794 10.2785C17.75 9.10793 18.3434 7.67571 18.3434 6.02109C18.3434 4.36705 17.75 2.93463 16.5792 1.76372C15.4085 0.593374 13.9761 0 12.3219 0C10.6672 0 9.235 0.593374 8.06446 1.76391C6.89392 2.93444 6.30035 4.36686 6.30035 6.02109C6.30035 7.67571 6.89392 9.10813 8.06465 10.2787C9.23538 11.449 10.6678 12.0426 12.3219 12.0426Z" fill="#B1B1B1"/>
<path d="M22.8579 19.2237C22.8241 18.7366 22.7558 18.2052 22.6553 17.644C22.5538 17.0787 22.4232 16.5443 22.2668 16.0558C22.1052 15.5509 21.8855 15.0523 21.6139 14.5745C21.332 14.0786 21.0009 13.6468 20.6293 13.2915C20.2408 12.9197 19.7651 12.6209 19.215 12.4028C18.6668 12.186 18.0593 12.0761 17.4095 12.0761C17.1543 12.0761 16.9075 12.1808 16.4309 12.4912C16.1375 12.6825 15.7944 12.9037 15.4114 13.1484C15.0839 13.3571 14.6402 13.5526 14.0923 13.7296C13.5576 13.9026 13.0148 13.9903 12.479 13.9903C11.9432 13.9903 11.4006 13.9026 10.8654 13.7296C10.318 13.5528 9.87434 13.3573 9.54723 13.1486C9.16786 12.9062 8.82454 12.6849 8.5268 12.491C8.05073 12.1806 7.80373 12.0759 7.54852 12.0759C6.8985 12.0759 6.2912 12.186 5.74322 12.403C5.19352 12.6207 4.71764 12.9195 4.32873 13.2917C3.95737 13.6472 3.62606 14.0788 3.34454 14.5745C3.07312 15.0523 2.85339 15.5507 2.69165 16.056C2.53544 16.5444 2.40479 17.0787 2.30331 17.644C2.2028 18.2044 2.13451 18.736 2.10075 19.2243C2.06757 19.7026 2.05078 20.1991 2.05078 20.7005C2.05078 22.0055 2.46563 23.062 3.28369 23.8412C4.09164 24.61 5.16071 25.0001 6.46076 25.0001H18.4984C19.7985 25.0001 20.8672 24.6102 21.6753 23.8412C22.4936 23.0626 22.9084 22.0059 22.9084 20.7003C22.9082 20.1966 22.8912 19.6998 22.8579 19.2237Z" fill="#B1B1B1"/>
</g>
<defs>
<clipPath id="clip0_20_714">
<rect width="25" height="25" fill="white"/>
</clipPath>
</defs>
</svg>

<svg xmlns="http://www.w3.org/2000/svg" width="25" height="25" fill="none"><g fill="#B1B1B1" clip-path="url(#a)"><path d="M12.322 12.043c1.654 0 3.087-.594 4.257-1.764 1.171-1.171 1.764-2.603 1.764-4.258 0-1.654-.593-3.086-1.764-4.257C15.41.594 13.976 0 12.322 0c-1.655 0-3.087.593-4.258 1.764C6.894 2.934 6.3 4.367 6.3 6.02c0 1.655.594 3.087 1.765 4.258 1.17 1.17 2.603 1.764 4.257 1.764ZM22.858 19.224a14.892 14.892 0 0 0-.203-1.58c-.101-.565-.232-1.1-.388-1.588a7.848 7.848 0 0 0-.653-1.482 5.587 5.587 0 0 0-.985-1.283 4.341 4.341 0 0 0-1.414-.888 4.89 4.89 0 0 0-1.805-.327c-.256 0-.503.105-.98.415-.293.191-.636.413-1.019.657-.327.21-.77.405-1.319.582a5.239 5.239 0 0 1-1.613.26 5.243 5.243 0 0 1-1.614-.26c-.547-.177-.99-.373-1.318-.581-.38-.243-.722-.464-1.02-.658-.476-.31-.723-.415-.978-.415-.65 0-1.258.11-1.806.327a4.337 4.337 0 0 0-1.414.889 5.59 5.59 0 0 0-.984 1.283 7.86 7.86 0 0 0-.653 1.481 12.475 12.475 0 0 0-.389 1.588c-.1.56-.168 1.092-.202 1.58-.033.479-.05.975-.05 1.477 0 1.305.415 2.361 1.233 3.14.808.769 1.877 1.16 3.177 1.16h12.037c1.3 0 2.37-.39 3.177-1.16.819-.778 1.233-1.835 1.233-3.14 0-.504-.017-1.001-.05-1.477Z"/></g><defs><clipPath id="a"><path fill="#fff" d="M0 0h25v25H0z"/></clipPath></defs></svg>
